libs/ui/packages/crypto-icons/src/svg/FUEL.svg

<svg width="24" height="24" viewBox="0 0 24 24" fill="none">
<path d="M19.149 7.50001H14.2778L12.8333 11.1225H8.27775V9.25726H12.8333L13.5 7.50001H6.6015C6.5161 7.49961 6.43402 7.5331 6.37328 7.59314C6.31254 7.65318 6.27809 7.73486 6.2775 7.82026V11.1218H5.1675L4.5 12.8783H6.2775V16.176C6.2775 16.3545 6.4245 16.5 6.606 16.5H9.94425L10.611 14.7443H8.27775V12.8775H12.0555L10.611 16.5H12.8333L14.3888 12.8775H19.1737C19.3538 12.8775 19.5 12.7335 19.5 12.5558V7.84576C19.4992 7.75339 19.4618 7.66512 19.396 7.6003C19.3302 7.53548 19.2414 7.49941 19.149 7.50001ZM17.6115 10.845C17.6115 10.998 17.4862 11.1225 17.331 11.1225H15.0555L15.8333 9.25801H17.3295C17.4036 9.25721 17.4749 9.28581 17.5279 9.33755C17.5809 9.38929 17.6113 9.45994 17.6122 9.53401L17.6115 10.845Z" fill="#4096D0"/>
</svg>

<svg width="24" height="24" viewBox="0 0 24 24" fill="none"><path fill="#4096d0" d="M19.149 7.5h-4.871l-1.445 3.623H8.278V9.257h4.555L13.5 7.5H6.602a.32.32 0 0 0-.325.32v3.302h-1.11L4.5 12.878h1.777v3.298c0 .179.147.324.329.324h3.338l.667-1.756H8.278v-1.867h3.778L10.61 16.5h2.222l1.556-3.623h4.785c.18 0 .326-.144.326-.321v-4.71a.35.35 0 0 0-.351-.346m-1.538 3.345a.28.28 0 0 1-.28.277h-2.275l.777-1.864h1.496a.28.28 0 0 1 .283.276z"/></svg>
